dotori-app/public/brand/dotori-social-profile-cream.svg

<svg viewBox="0 0 400 400"><defs><radialGradient id="b" cx=".4" cy=".32" r=".6"><stop offset="0%" stop-color="#dab080"/><stop offset="55%" stop-color="#c8956a"/><stop offset="100%" stop-color="#a87848"/></radialGradient><linearGradient id="c" x1=".1" x2=".9" y1=".1" y2=".9"><stop offset="0%" stop-color="#aa8462"/><stop offset="100%" stop-color="#7a5438"/></linearGradient><clipPath id="a"><circle cx="200" cy="200" r="200"/></clipPath></defs><g clip-path="url(#a)"><path fill="#faf7f2" d="M0 0h400v400H0z"/><g transform="matrix(2.8 0 0 2.8 200 215)"><ellipse cy="4" fill="url(#b)" rx="33" ry="31"/><ellipse cx="-10" cy="-4" fill="#fff" opacity=".06" rx="10" ry="14" transform="rotate(-10 -10 -4)"/><path fill="url(#c)" d="M-31-15q0-24 31-26 31 2 31 26Q18-7 0-7t-31-8"/><path fill="none" stroke="#8a6440" stroke-width=".55" d="M-23-22q13 4 23 4t23-4" opacity=".25"/><path fill="#7a5438" d="M-3-41q-1.5-9 .5-12.5 2.5-1.5 5 0Q4.5-50 3-41"/><circle cx="-9" cy="4" r="2.7" fill="#4a3018"/><circle cx="9" cy="4" r="2.7" fill="#4a3018"/><circle cx="-10" cy="2.5" r=".9" fill="#fff" opacity=".45"/><circle cx="8" cy="2.5" r=".9" fill="#fff" opacity=".45"/><path fill="none" stroke="#4a3018" stroke-linecap="round" stroke-width="1.8" d="M-7 12q7 6.5 14 0"/><ellipse cx="-16" cy="8.5" fill="#d4907a" opacity=".16" rx="5.5" ry="2.8"/><ellipse cx="16" cy="8.5" fill="#d4907a" opacity=".16" rx="5.5" ry="2.8"/></g></g></svg>

<svg xmlns="http://www.w3.org/2000/svg" width="400" height="400" viewBox="0 0 400 400">
  <defs>
    <radialGradient id="dspc-body" cx="0.40" cy="0.32" r="0.60">
      <stop offset="0%" stop-color="#dab080"/>
      <stop offset="55%" stop-color="#c8956a"/>
      <stop offset="100%" stop-color="#a87848"/>
    </radialGradient>
    <linearGradient id="dspc-cap" x1="0.1" y1="0.1" x2="0.9" y2="0.9">
      <stop offset="0%" stop-color="#aa8462"/>
      <stop offset="100%" stop-color="#7a5438"/>
    </linearGradient>
    <clipPath id="dspc-circle"><circle cx="200" cy="200" r="200"/></clipPath>
  </defs>
  <g clip-path="url(#dspc-circle)">
    <rect width="400" height="400" fill="#faf7f2"/>
    <g transform="translate(200,215) scale(2.8)">
      <ellipse cx="0" cy="4" rx="33" ry="31" fill="url(#dspc-body)"/>
      <ellipse cx="-10" cy="-4" rx="10" ry="14" fill="white" opacity="0.06" transform="rotate(-10 -10 -4)"/>
      <path d="M-31,-15 Q-31,-39 0,-41 Q31,-39 31,-15 Q18,-7 0,-7 Q-18,-7 -31,-15Z" fill="url(#dspc-cap)"/>
      <path d="M-23,-22 Q-10,-18 0,-18 Q10,-18 23,-22" stroke="#8a6440" stroke-width="0.55" fill="none" opacity="0.25"/>
      <path d="M-3,-41 Q-4.5,-50 -2.5,-53.5 Q0,-55 2.5,-53.5 Q4.5,-50 3,-41" fill="#7a5438"/>
      <circle cx="-9" cy="4" r="2.7" fill="#4a3018"/>
      <circle cx="9" cy="4" r="2.7" fill="#4a3018"/>
      <circle cx="-10" cy="2.5" r="0.9" fill="white" opacity="0.45"/>
      <circle cx="8" cy="2.5" r="0.9" fill="white" opacity="0.45"/>
      <path d="M-7,12 Q0,18.5 7,12" stroke="#4a3018" stroke-width="1.8" stroke-linecap="round" fill="none"/>
      <ellipse cx="-16" cy="8.5" rx="5.5" ry="2.8" fill="#d4907a" opacity="0.16"/>
      <ellipse cx="16" cy="8.5" rx="5.5" ry="2.8" fill="#d4907a" opacity="0.16"/>
    </g>
  </g>
</svg>
